src/icons/workdflow.svg

<svg xmlns="http://www.w3.org/2000/svg"  viewBox="0 0 50 50" width="32px" height="32px"><path d="M 10 0 C 4.484375 0 0 4.484375 0 10 C 0 15.070313 3.789063 19.261719 8.6875 19.90625 L 5.28125 23.28125 C 4.890625 23.671875 4.890625 24.328125 5.28125 24.71875 C 5.671875 25.109375 6.328125 25.109375 6.71875 24.71875 L 9 22.40625 L 9 30 L 1 30 C 0.449219 30 0 30.445313 0 31 L 0 49 C 0 49.554688 0.449219 50 1 50 L 19 50 C 19.550781 50 20 49.554688 20 49 L 20 31 C 20 30.445313 19.550781 30 19 30 L 11 30 L 11 22.40625 L 13.28125 24.71875 C 13.476563 24.914063 13.742188 25 14 25 C 14.257813 25 14.523438 24.914063 14.71875 24.71875 C 15.109375 24.328125 15.109375 23.671875 14.71875 23.28125 L 11.3125 19.90625 C 15.886719 19.304688 19.480469 15.617188 19.9375 11 L 27.59375 11 L 25.28125 13.28125 C 24.890625 13.671875 24.890625 14.328125 25.28125 14.71875 C 25.476563 14.914063 25.742188 15 26 15 C 26.257813 15 26.523438 14.914063 26.71875 14.71875 L 30.5 10.9375 L 39 19.4375 L 39 27.59375 L 36.71875 25.28125 C 36.328125 24.890625 35.671875 24.890625 35.28125 25.28125 C 34.890625 25.671875 34.890625 26.328125 35.28125 26.71875 L 38.6875 30.09375 C 33.789063 30.738281 30 34.929688 30 40 C 30 45.515625 34.484375 50 40 50 C 45.515625 50 50 45.515625 50 40 C 50 34.929688 46.210938 30.738281 41.3125 30.09375 L 44.71875 26.71875 C 45.109375 26.328125 45.109375 25.671875 44.71875 25.28125 C 44.328125 24.890625 43.671875 24.890625 43.28125 25.28125 L 41 27.59375 L 41 19.4375 L 49.71875 10.71875 C 50.109375 10.328125 50.109375 9.671875 49.71875 9.28125 L 40.71875 0.28125 C 40.328125 -0.109375 39.671875 -0.109375 39.28125 0.28125 L 30.5 9.0625 L 26.71875 5.28125 C 26.328125 4.890625 25.671875 4.890625 25.28125 5.28125 C 24.890625 5.671875 24.890625 6.328125 25.28125 6.71875 L 27.59375 9 L 19.9375 9 C 19.4375 3.949219 15.179688 0 10 0 Z"/></svg>

<svg role="img" viewBox="0 0 50 50" xmlns="http://www.w3.org/2000/svg"><path d="M10 0C4.484 0 0 4.484 0 10c0 5.07 3.79 9.262 8.688 9.906L5.28 23.281a1.03 1.03 0 0 0 0 1.438c.39.39 1.047.39 1.438 0L9 22.406V30H1a1 1 0 0 0-1 1v18a1 1 0 0 0 1 1h18a1 1 0 0 0 1-1V31a1 1 0 0 0-1-1h-8v-7.594l2.281 2.313c.196.195.461.281.719.281.258 0 .523-.086.719-.281a1.03 1.03 0 0 0 0-1.438l-3.406-3.375A9.987 9.987 0 0 0 19.938 11h7.656l-2.313 2.281a1.03 1.03 0 0 0 0 1.438c.196.195.461.281.719.281.258 0 .523-.086.719-.281l3.781-3.781 8.5 8.5v8.156l-2.281-2.313a1.028 1.028 0 0 0-1.438 0 1.03 1.03 0 0 0 0 1.438l3.407 3.375C33.789 30.738 30 34.93 30 40c0 5.516 4.484 10 10 10s10-4.484 10-10c0-5.07-3.79-9.262-8.687-9.906l3.406-3.375a1.03 1.03 0 0 0 0-1.438 1.028 1.028 0 0 0-1.438 0L41 27.594v-8.157l8.719-8.718a1.03 1.03 0 0 0 0-1.438l-9-9a1.028 1.028 0 0 0-1.438 0L30.5 9.063 26.719 5.28a1.028 1.028 0 0 0-1.438 0 1.03 1.03 0 0 0 0 1.438L27.594 9h-7.657c-.5-5.05-4.757-9-9.937-9"/></svg>
